fs/text_indent_decrease_ltr_20_regular.svg

<svg viewBox="0 0 20 20" fill="none" xmlns="http://www.w3.org/2000/svg" height="1em" width="1em">
  <path d="M6.00003 4.5C6.00003 4.22386 6.22389 4 6.50003 4H14.5C14.7762 4 15 4.22386 15 4.5C15 4.77614 14.7762 5 14.5 5H6.50003C6.22389 5 6.00003 4.77614 6.00003 4.5ZM3.56066 7.73226C3.75592 7.537 4.0725 7.537 4.26777 7.73226C4.46303 7.92752 4.46303 8.24411 4.26777 8.43937L3.20711 9.50003L4.26777 10.5607C4.46303 10.756 4.46303 11.0725 4.26777 11.2678C4.0725 11.4631 3.75592 11.4631 3.56066 11.2678L2.14645 9.85358C1.95118 9.65832 1.95118 9.34174 2.14645 9.14648L3.56066 7.73226ZM6.50003 9C6.22389 9 6.00003 9.22386 6.00003 9.5C6.00003 9.77614 6.22389 10 6.50003 10H17.5C17.7762 10 18 9.77614 18 9.5C18 9.22386 17.7762 9 17.5 9H6.50003ZM6.00003 14.5C6.00003 14.2239 6.22389 14 6.50003 14H12.5C12.7762 14 13 14.2239 13 14.5C13 14.7761 12.7762 15 12.5 15H6.50003C6.22389 15 6.00003 14.7761 6.00003 14.5Z" fill="#212121"/>
</svg>

<svg viewBox="0 0 20 20" fill="none" xmlns="http://www.w3.org/2000/svg" height="1em" width="1em">
  <path d="M6 4.5a.5.5 0 0 1 .5-.5h8a.5.5 0 1 1 0 1h-8a.5.5 0 0 1-.5-.5ZM3.56 7.732a.5.5 0 0 1 .708.707L3.208 9.5l1.06 1.06a.5.5 0 1 1-.707.708L2.146 9.854a.5.5 0 0 1 0-.708l1.415-1.414ZM6.5 9a.5.5 0 0 0 0 1h11a.5.5 0 1 0 0-1h-11ZM6 14.5a.5.5 0 0 1 .5-.5h6a.5.5 0 1 1 0 1h-6a.5.5 0 0 1-.5-.5Z" fill="#212121"/>
</svg>
